packages/foundations/assets/icons/functional/images/business & payment/discount_20_filled.svg

<svg width="20" height="20" viewBox="0 0 20 20" fill="none" xmlns="http://www.w3.org/2000/svg">
<g clip-path="url(#clip0_2202_1439)">
<path fill-rule="evenodd" clip-rule="evenodd" d="M10.04 1.716C10.65 1.696 11.239 2 11.624 2.467L12.214 3.198L13.168 2.975C13.33 2.934 13.492 2.914 13.655 2.914C14.751 2.914 15.685 3.767 15.725 4.863L15.787 5.797L16.68 6.162C17.472 6.508 18 7.259 18 8.112C18 8.498 17.878 8.883 17.655 9.228L17.147 10L17.655 10.833C17.858 11.178 17.98 11.563 17.98 11.97C17.98 12.802 17.452 13.574 16.66 13.878L15.787 14.203L15.706 15.178C15.624 16.193 14.792 17.107 13.634 17.107C13.452 17.107 13.269 17.087 13.107 17.046L12.213 16.802L11.563 17.533C11.137 18.061 10.67 18.263 9.959 18.284C9.35 18.304 8.761 18 8.376 17.533L7.786 16.802L6.832 17.025C6.67283 17.0655 6.50924 17.086 6.345 17.086C5.249 17.086 4.315 16.233 4.275 15.137L4.213 14.203L3.32 13.838C2.508 13.492 2 12.76 2 11.908C2 11.502 2.122 11.117 2.345 10.772L2.853 10L2.345 9.147C2.13424 8.81244 2.02163 8.42542 2.02 8.03C2.02 7.198 2.548 6.426 3.34 6.122L4.213 5.797L4.315 4.822C4.355 3.726 5.289 2.893 6.365 2.893C6.548 2.893 6.731 2.913 6.893 2.954L7.787 3.198L8.417 2.447C8.863 1.959 9.33 1.737 10.041 1.716H10.04ZM11.993 6.579L6.6 12.012L8 13.413L13.415 8L11.993 6.579ZM12.396 11.401C12.1322 11.4013 11.8793 11.5062 11.6927 11.6927C11.5062 11.8793 11.4013 12.1322 11.401 12.396C11.399 12.5282 11.4233 12.6594 11.4723 12.7821C11.5214 12.9049 11.5943 13.0167 11.6868 13.1111C11.7793 13.2054 11.8896 13.2805 12.0114 13.332C12.1331 13.3835 12.2638 13.4104 12.396 13.411C12.965 13.411 13.411 12.965 13.411 12.396C13.4104 12.2638 13.3835 12.1331 13.332 12.0114C13.2805 11.8896 13.2054 11.7793 13.111 11.6868C13.0167 11.5943 12.9049 11.5214 12.7821 11.4723C12.6594 11.4233 12.5282 11.399 12.396 11.401ZM7.604 6.589C7.035 6.589 6.589 7.035 6.589 7.604C6.58965 7.73618 6.61649 7.86691 6.66797 7.98864C6.71946 8.11038 6.79457 8.2207 6.88895 8.31322C6.98334 8.40575 7.09513 8.47865 7.21787 8.5277C7.3406 8.57675 7.47184 8.60099 7.604 8.599C7.86781 8.59874 8.12074 8.49382 8.30728 8.30728C8.49382 8.12074 8.59874 7.86781 8.599 7.604C8.60098 7.47184 8.57675 7.3406 8.5277 7.21787C8.47864 7.09513 8.40575 6.98334 8.31322 6.88896C8.22069 6.79457 8.11037 6.71946 7.98864 6.66798C7.86691 6.61649 7.73617 6.58965 7.604 6.589Z" fill="#1A1C1F"/>
</g>
<defs>
<clipPath id="clip0_2202_1439">
<rect width="20" height="20" fill="white"/>
</clipPath>
</defs>
</svg>

<svg xmlns="http://www.w3.org/2000/svg" width="20" height="20" fill="none"><g clip-path="url(#a)"><path fill="#1A1C1F" fill-rule="evenodd" d="M10.04 1.716c.61-.02 1.199.284 1.584.751l.59.731.954-.223q.243-.061.487-.061c1.096 0 2.03.853 2.07 1.949l.062.934.893.365c.792.346 1.32 1.097 1.32 1.95 0 .386-.122.771-.345 1.116l-.508.772.508.833c.203.345.325.73.325 1.137 0 .832-.528 1.604-1.32 1.908l-.873.325-.081.975c-.082 1.015-.914 1.929-2.072 1.929-.182 0-.365-.02-.527-.061l-.894-.244-.65.731c-.426.528-.893.73-1.604.751-.609.02-1.198-.284-1.583-.751l-.59-.731-.954.223q-.24.06-.487.061c-1.096 0-2.03-.853-2.07-1.949l-.062-.934-.893-.365C2.508 13.492 2 12.76 2 11.908c0-.406.122-.791.345-1.136L2.853 10l-.508-.853A2.1 2.1 0 0 1 2.02 8.03c0-.832.528-1.604 1.32-1.908l.873-.325.102-.975c.04-1.096.974-1.929 2.05-1.929.183 0 .366.02.528.061l.894.244.63-.751c.446-.488.913-.71 1.624-.731zm1.953 4.863L6.6 12.012 8 13.413 13.415 8zm.403 4.822a.996.996 0 0 0-.995.995 1 1 0 0 0 .995 1.015 1.004 1.004 0 0 0 .936-1.4 1 1 0 0 0-.936-.61M7.604 6.589a1.004 1.004 0 0 0-.936 1.4 1 1 0 0 0 .936.61.996.996 0 0 0 .995-.995 1 1 0 0 0-.995-1.015" clip-rule="evenodd"/></g><defs><clipPath id="a"><path fill="#fff" d="M0 0h20v20H0z"/></clipPath></defs></svg>
